X:1
T:Auctor Vitae, 66.66.68
T:Auctor Vitae, 66.66.68
T:Henry Walford Davies, 1916
T:Public Domain Courtesy of the Cyber Hymnal™
C:Henry Walford Davies, 1916
Z:Public Domain
Z:Courtesy of the Cyber Hymnal™
%%score ( 1 2 ) ( 3 4 )
L:1/8
Q:1/4=113
M:none
K:D
V:1 treble 
V:2 treble 
V:3 bass 
V:4 bass 
V:1
 D2 F2 A2 A3 B B2 | F2 E2 [DF]2 [CG]3 F F4 | D2 [CF]2 [DA]2 [FA]2 [DB]2 [EA]2 | %3
 F2 [B,E]2 [DF]2 (GFED) E2 [^A,F]2 [B,F]4 | [CA]2 [Dd]2 [Ec]2 [FB]2 | %5
 [DA]2 (B2 A2) F2 !fermata![EA]4 | [CF]2 [B,D]2 [CE]2 [DF]2 G2 F2 [CE]3 D !fermata!D4 |] %7
V:2
 D2 F2 A2 A3 B B2 | F2 E2 x3 F F4 x2 | D2 x10 | DC x3 E2 B,4 x7 | x8 | x2 D4 F2 x4 | %6
 x8 (ED) (CB, x2 D) D4 x |] %7
V:3
 D,2 F,2 A,2 A,3 B, B,2 | ([B,D][A,C]) [G,B,]2 [F,B,]2 [E,B,]3 [F,^A,] [F,A,]4 | %2
 [B,D]2 [A,=C]2 [F,A,]2 [D,F,]2 [B,,F,]2 [=C,A,]2 | %3
 [D,A,]2 [G,B,]2 [F,A,]2 ([E,G,][F,A,] [G,B,]4) [F,C]2 [B,D]4 | ([A,C][G,B,]) [F,A,]2 A,2 [D,F,]2 | %5
 [F,A,]2 D4 (CB,) !fermata![A,,C]4 | %6
 [A,,A,]2 [B,,F,]2 [A,,A,]2 [F,A,]2 [E,B,]2 (A,2 z2 [D,F,]) [D,F,]4 x |] %7
V:4
 D,2 F,2 A,2 A,3 B, B,2 | x14 | x12 | x18 | x4 A,2 x2 | x2 (G,2 F,2) D,2 x4 | %6
 x10 A,,4 G,3 A,, x2 |] %7

